Numix-GalliumOS/22/mimetypes/inode-symlink.svg

<?xml version="1.0" encoding="UTF-8" standalone="no"?>
<svg
   xmlns:dc="http://purl.org/dc/elements/1.1/"
   xmlns:cc="http://creativecommons.org/ns#"
   xmlns:rdf="http://www.w3.org/1999/02/22-rdf-syntax-ns#"
   xmlns:svg="http://www.w3.org/2000/svg"
   xmlns="http://www.w3.org/2000/svg"
   xmlns:sodipodi="http://sodipodi.sourceforge.net/DTD/sodipodi-0.dtd"
   xmlns:inkscape="http://www.inkscape.org/namespaces/inkscape"
   width="22"
   height="22"
   viewBox="0 0 22 22"
   id="svg2985"
   version="1.1"
   inkscape:version="0.91 r13725"
   sodipodi:docname="inode-symlink.svg">
  <metadata
     id="metadata2999">
    <rdf:RDF>
      <cc:Work
         rdf:about="">
        <dc:format>image/svg+xml</dc:format>
        <dc:type
           rdf:resource="http://purl.org/dc/dcmitype/StillImage" />
      </cc:Work>
    </rdf:RDF>
  </metadata>
  <defs
     id="defs2997" />
  <sodipodi:namedview
     pagecolor="#ffffff"
     bordercolor="#666666"
     borderopacity="1"
     objecttolerance="10"
     gridtolerance="10"
     guidetolerance="10"
     inkscape:pageopacity="0"
     inkscape:pageshadow="2"
     inkscape:window-width="1280"
     inkscape:window-height="998"
     id="namedview2995"
     showgrid="true"
     inkscape:zoom="15.170655"
     inkscape:cx="5.7845213"
     inkscape:cy="8.2837641"
     inkscape:window-x="0"
     inkscape:window-y="0"
     inkscape:window-maximized="1"
     inkscape:current-layer="svg2985">
    <inkscape:grid
       type="xygrid"
       id="grid3025" />
  </sodipodi:namedview>
  <path
     style="fill:#dc322f;fill-opacity:1"
     d="m 4,1e-7 c -0.472657,0 -1,0.527344 -1,1 L 3,21 c 0,0.445312 0.554687,1 1,1 l 14,0 c 0.445313,0 0.992367,-0.554753 1,-1 L 19,6 13,1e-7 z"
     id="path4"
     inkscape:connector-curvature="0"
     sodipodi:nodetypes="ssssssccs" />
  <path
     style="fill:#000000;fill-opacity:0.19599998"
     d="m 14,6 5,5 0,-5 z"
     id="path6"
     inkscape:connector-curvature="0"
     sodipodi:nodetypes="cccc" />
  <path
     style="fill:#ffffff;fill-opacity:0.39200003"
     d="M 13,1e-7 19,6 14,6 C 13.554688,6 13,5.445312 13,5 z"
     id="path8"
     inkscape:connector-curvature="0"
     sodipodi:nodetypes="ccssc" />
  <path
     inkscape:connector-curvature="0"
     style="fill:#ffffff;fill-opacity:1"
     d="M 13.153409,9 11,11.153409 8.8465905,9 7,10.846591 9.1534095,13 7,15.153409 8.8465905,17 11,14.846591 13.153409,17 15,15.153409 12.846591,13 15,10.846591 Z"
     id="path6-5" />
</svg>

<svg xmlns="http://www.w3.org/2000/svg" viewBox="0 0 22 22">
 <path d="m 4 0 c -0.473 0 -1 0.527 -1 1 l 0 20 c 0 0.445 0.555 1 1 1 l 14 0 c 0.445 0 0.992 -0.555 1 -1 l 0 -15 -6 -6 z" style="fill:#dc322f;fill-opacity:1"/>
 <path d="m 14 6 5 5 0 -5 z" style="fill:#000;fill-opacity:0.196"/>
 <path d="m 13 0 6 6 -5 0 c -0.445 0 -1 -0.555 -1 -1 z" style="fill:#fff;fill-opacity:0.392"/>
 <path d="m 13.153 9 -2.153 2.153 -2.153 -2.153 -1.847 1.847 2.153 2.153 -2.153 2.153 1.847 1.847 2.153 -2.153 2.153 2.153 1.847 -1.847 -2.153 -2.153 2.153 -2.153" style="fill:#fff;fill-opacity:1"/>
</svg>
